jsapp/svg-icons/webform.svg

<svg height="40" viewBox="0 0 40 40" width="40" xmlns="http://www.w3.org/2000/svg"><path d="m10.11794 28 1.3317377-4h16.5433191l1.3317377 4zm17.595322-6h-15.9848485v-10h15.9848485zm3.6295596 5.735-1.6314536-4.898v-11.837c0-.552-.4465767-1-.999053-1h-17.9829545c-.5514773 0-.99905308.448-.99905308 1v11.837l-1.63045454 4.897c-.18582386.558-.10989583 1.13.20780303 1.572.31669981.441.83520833.694 1.42265151.694h19.98106058c.5874432 0 1.1059517-.253 1.4236506-.694.3176989-.442.3936269-1.014.207803-1.571zm-13.6197902-.735h3.9962121v-2h-3.9962121zm-3.9905303-7h2v-2h-2zm2-6h-2v2h2zm2 6h6v-2h-6zm4-6h-4v2h4z" fill-rule="evenodd"/></svg>

<?xml version="1.0" encoding="UTF-8"?>
<svg width="40px" height="40px" viewBox="0 0 40 40" version="1.1" xmlns="http://www.w3.org/2000/svg" xmlns:xlink="http://www.w3.org/1999/xlink">
    <!-- Generator: Sketch 50.2 (55047) - http://www.bohemiancoding.com/sketch -->
    <title>Icons/webform</title>
    <desc>Created with Sketch.</desc>
    <defs>
        <path d="M10.11794,28 L11.4496777,24 L27.9929968,24 L29.3247345,28 L10.11794,28 Z M27.713262,22 L11.7284135,22 L11.7284135,12 L27.713262,12 L27.713262,22 Z M31.3428216,27.735 L29.711368,22.837 L29.711368,11 C29.711368,10.448 29.2647913,10 28.712315,10 L10.7293605,10 C10.1778832,10 9.73030742,10.448 9.73030742,11 L9.73030742,22.837 L8.09985288,27.734 C7.91402902,28.292 7.98995705,28.864 8.30765591,29.306 C8.62435572,29.747 9.14286424,30 9.73030742,30 L29.711368,30 C30.2988112,30 30.8173197,29.747 31.1350186,29.306 C31.4527175,28.864 31.5286455,28.292 31.3428216,27.735 L31.3428216,27.735 Z M17.7230314,27 L21.7192435,27 L21.7192435,25 L17.7230314,25 L17.7230314,27 Z M13.7325011,20 L15.7325011,20 L15.7325011,18 L13.7325011,18 L13.7325011,20 Z M15.7325011,14 L13.7325011,14 L13.7325011,16 L15.7325011,16 L15.7325011,14 Z M17.7325011,20 L23.7325011,20 L23.7325011,18 L17.7325011,18 L17.7325011,20 Z M21.7325011,14 L17.7325011,14 L17.7325011,16 L21.7325011,16 L21.7325011,14 Z" id="path-1"></path>
    </defs>
    <g id="Icons/webform" stroke="none" stroke-width="1" fill="none" fill-rule="evenodd">
        <mask id="mask-2" fill="white">
            <use xlink:href="#path-1"></use>
        </mask>
        <use id="Mask" fill="#000000" xlink:href="#path-1"></use>
    </g>
</svg>
